symbols/craft/carpenter.svg

<?xml version="1.0" encoding="UTF-8"?>
<svg id="craft_carpenter" width="14" height="14" version="1.1" viewBox="0 0 14 14" xmlns="http://www.w3.org/2000/svg">
 <path d="m12.639 0l-5.4434 4.8164 2.0586 2.0586h1.3828v-1.8535h1.6719v-1.8262l0.013672-0.015625h1.6777v-1.8633h-0.039062l-1.3223-1.3164zm-5.9355 5.252l-1.5215 1.3457 2.082 2.082 1.373-1.4941-1.9336-1.9336zm-2.0137 1.7832l-2.0703 1.8301c-0.058741-0.0025547-0.11673-0.011261-0.17578-0.0039063-0.13733 0.017105-0.2746 0.06119-0.40234 0.13477l-1.5078 0.86914c-0.51099 0.2943-0.68405 0.9408-0.38867 1.4512l1.2441 2.1504c0.29538 0.51037 0.94409 0.68493 1.4551 0.39062l1.5078-0.86914c0.51099-0.2943 0.68405-0.94276 0.38867-1.4531l-0.039062-0.068359 0.73633-0.80078h1.5566v-1.3262l-2.3047-2.3047zm-2.25 2.6602c0.061887-0.0077079 0.12243 0.0085811 0.17969 0.03125l0.25977 0.2793 1.0645 1.8398c0.10217 0.17654 0.041987 0.40015-0.13477 0.50195l-1.2969 0.74805c-0.17675 0.1018-0.40173 0.041772-0.50391-0.13476l-1.1387-1.9688c-0.10217-0.17654-0.041987-0.40211 0.13477-0.50391l1.2969-0.74609c0.044188-0.02545 0.091168-0.040958 0.13867-0.046875z" fill-rule="evenodd"/>
 <path d="m6.6484 0.0039062c-1.1071 0.038135-2.2837 0.28999-3.7812 1.4102l-0.0019531-0.0019531-0.0097656 0.0097656c-0.002008 0.0015066-0.0038503 0.0023966-0.0058594 0.0039062l0.0019531 0.0019532-1.4102 1.4316 0.30859 0.30859-0.48242 0.48438-0.31836-0.32031-0.94922 0.95312 1.4355 1.4414 0.94922-0.95312-0.30664-0.30859 0.48438-0.48438 10.014 10.02 1.4238-1.4473-9.7109-9.7168c-0.037658-1.4242 2.3172-2.4355 3.4531-2.4355 0.00231-0.2636 0.0039063-0.15446 0.0039063-0.38867-0.3646-0.0096998-0.72713-0.020575-1.0977-0.0078125z" fill-rule="evenodd"/>
</svg>

<?xml version="1.0" encoding="UTF-8" standalone="no"?>
<svg
   xmlns:dc="http://purl.org/dc/elements/1.1/"
   xmlns:cc="http://creativecommons.org/ns#"
   xmlns:rdf="http://www.w3.org/1999/02/22-rdf-syntax-ns#"
   xmlns:svg="http://www.w3.org/2000/svg"
   xmlns="http://www.w3.org/2000/svg"
   viewBox="0 0 14 14"
   height="14"
   width="14"
   id="craft_carpenter"
   version="1.1">
  <metadata
     id="metadata115">
    <rdf:RDF>
      <cc:Work
         rdf:about="">
        <dc:format>image/svg+xml</dc:format>
        <dc:type
           rdf:resource="http://purl.org/dc/dcmitype/StillImage" />
        <dc:title></dc:title>
      </cc:Work>
    </rdf:RDF>
  </metadata>
  <defs
     id="defs113" />
  <path
     id="rect1203"
     d="M 12.638672 0 L 7.1953125 4.8164062 L 9.2539062 6.875 L 10.636719 6.875 L 10.636719 5.0214844 L 12.308594 5.0214844 L 12.308594 3.1953125 L 12.322266 3.1796875 L 14 3.1796875 L 14 1.3164062 L 13.960938 1.3164062 L 12.638672 0 z M 6.703125 5.2519531 L 5.1816406 6.5976562 L 7.2636719 8.6796875 L 8.6367188 7.1855469 L 6.703125 5.2519531 z M 4.6894531 7.0351562 L 2.6191406 8.8652344 C 2.5604 8.8626797 2.5024072 8.8539738 2.4433594 8.8613281 C 2.3060267 8.8784327 2.1687628 8.9225179 2.0410156 8.9960938 L 0.53320312 9.8652344 C 0.022214468 10.159537 -0.1508474 10.806039 0.14453125 11.316406 L 1.3886719 13.466797 C 1.6840505 13.977164 2.3327613 14.151724 2.84375 13.857422 L 4.3515625 12.988281 C 4.8625512 12.693979 5.035613 12.045524 4.7402344 11.535156 L 4.7011719 11.466797 L 5.4375 10.666016 L 6.9941406 10.666016 L 6.9941406 9.3398438 L 4.6894531 7.0351562 z M 2.4394531 9.6953125 C 2.5013397 9.6876046 2.561885 9.7038936 2.6191406 9.7265625 L 2.8789062 10.005859 L 3.9433594 11.845703 C 4.0455319 12.022241 3.9853464 12.245856 3.8085938 12.347656 L 2.5117188 13.095703 C 2.3349657 13.197503 2.109985 13.137475 2.0078125 12.960938 L 0.86914062 10.992188 C 0.76696811 10.815647 0.82715363 10.590081 1.0039062 10.488281 L 2.3007812 9.7421875 C 2.3449697 9.7167374 2.3919493 9.701229 2.4394531 9.6953125 z "
     style="opacity:1;fill:#000000;fill-opacity:1;fill-rule:evenodd;stroke:none;stroke-width:0.90670317;stroke-linecap:square;stroke-linejoin:round;stroke-miterlimit:4;stroke-dasharray:none;stroke-opacity:1;paint-order:stroke fill markers" />
  <path
     id="rect231-1"
     d="M 6.6484375 0.00390625 C 5.5413047 0.042041095 4.3646915 0.29389461 2.8671875 1.4140625 L 2.8652344 1.4121094 L 2.8554688 1.421875 C 2.8534608 1.4233816 2.8516185 1.4242716 2.8496094 1.4257812 L 2.8515625 1.4277344 L 1.4414062 2.859375 L 1.75 3.1679688 L 1.2675781 3.6523438 L 0.94921875 3.3320312 L 0 4.2851562 L 1.4355469 5.7265625 L 2.3847656 4.7734375 L 2.078125 4.4648438 L 2.5625 3.9804688 L 12.576172 14 L 14 12.552734 L 4.2890625 2.8359375 C 4.251405 1.4117303 6.6062529 0.40039063 7.7421875 0.40039062 C 7.7444975 0.13678931 7.7460938 0.24593006 7.7460938 0.01171875 C 7.3814942 0.002018925 7.0189646 -0.0088564409 6.6484375 0.00390625 z "
     style="opacity:1;fill:#000000;fill-opacity:1;fill-rule:evenodd;stroke:none;stroke-width:0.47358352;stroke-linecap:square;stroke-linejoin:round;stroke-miterlimit:4;stroke-dasharray:none;stroke-opacity:1;paint-order:stroke fill markers" />
</svg>
